images/company9.svg

<svg width="251" height="40" viewBox="0 0 251 40" fill="none" xmlns="http://www.w3.org/2000/svg">
<g id="Frame" clip-path="url(#clip0_282_1479)">
<g id="Clip path group">
<mask id="mask0_282_1479" style="mask-type:luminance" maskUnits="userSpaceOnUse" x="0" y="0" width="251" height="40">
<g id="a">
<path id="Vector" d="M0.523438 0H250.523V40H0.523438V0Z" fill="white"/>
</g>
</mask>
<g mask="url(#mask0_282_1479)">
<g id="Group">
<path id="Vector_2" d="M224.385 22.8202H232.525L228.565 13.7002L224.365 22.8202H224.385ZM136.125 10.6402C135.145 9.70023 133.825 9.24023 132.185 9.24023C131.505 9.24023 130.585 9.34024 129.445 9.56023V19.6002H130.165C132.645 19.6002 134.545 19.1002 135.765 18.1002C137.005 17.1002 137.605 15.8402 137.605 14.3002C137.605 12.7602 137.125 11.5802 136.125 10.6402Z" fill="white"/>
<path id="Vector_3" d="M44.5625 0V40H250.523V0H44.5625ZM72.9025 20C71.0868 21.498 68.7725 22.2551 66.4225 22.12C65.0089 22.1184 63.6 21.9574 62.2225 21.64V28.72C62.2225 30.72 62.5225 31.32 62.7025 31.52C63.1225 31.98 63.7825 32.22 64.7025 32.22H66.1225V33.66H53.6425V32.22H55.0625C56.0825 32.22 56.7825 31.92 57.2025 31.32C57.3425 31.12 57.5425 30.54 57.5425 28.72V11.98C57.5425 9.98 57.2625 9.38 57.1025 9.18C56.6425 8.72 55.9825 8.48 55.0625 8.48H53.6425V7.04H64.0425C66.0357 6.97878 68.0262 7.22845 69.9425 7.78C71.3979 8.26897 72.6914 9.14745 73.6825 10.32C74.6825 11.52 75.2025 12.94 75.2025 14.58C75.2025 16.78 74.4425 18.62 72.9025 20.02V20ZM112.203 8.32H110.803C109.863 8.32 109.163 8.68 108.643 9.44C108.523 9.64 108.303 10.22 108.303 12V22.46C108.386 24.5467 108.102 26.6318 107.463 28.62C106.863 30.1 105.743 31.42 104.083 32.46C102.423 33.52 100.163 34.06 97.3425 34.06C94.8989 34.2033 92.4631 33.6704 90.3025 32.52C88.7361 31.5598 87.5277 30.1126 86.8625 28.4C86.4225 27.22 86.2025 25.1 86.2025 21.92V11.8C86.2025 9.94 85.8825 9.2 85.6025 8.92C85.2225 8.52 84.6025 8.3 83.7025 8.3H82.3025V6.86H94.7825V8.3H93.3625C92.3625 8.3 91.7025 8.58 91.3025 9.14C91.1025 9.42 90.8825 10.1 90.8825 11.8V23.06C90.8825 24.04 90.9825 25.18 91.1825 26.46C91.3625 27.68 91.7025 28.66 92.1825 29.32C92.6625 30 93.3425 30.54 94.2625 30.98C95.5503 31.4743 96.9271 31.6941 98.3048 31.6252C99.6824 31.5563 101.03 31.2003 102.263 30.58C103.603 29.9 104.543 29 105.023 27.94C105.503 26.84 105.763 24.94 105.763 22.26V11.8C105.763 9.8 105.483 9.2 105.303 9C104.863 8.52 104.183 8.3 103.283 8.3H101.883V6.86H112.203V8.3V8.32ZM148.923 33.64H140.963L140.863 33.5L131.663 21.54L130.223 21.58H129.663L129.463 21.56V28.72C129.463 30.72 129.743 31.32 129.903 31.5C130.343 31.98 130.983 32.2 131.903 32.2H133.343V33.64H120.863V32.2H122.263C123.283 32.2 123.983 31.92 124.403 31.3C124.543 31.1 124.763 30.54 124.763 28.7V11.98C124.763 9.98 124.483 9.38 124.303 9.2C123.843 8.72 123.203 8.48 122.263 8.48H120.863V7.04H131.243C134.183 7.04 136.383 7.24 137.783 7.68C139.243 8.08 140.483 8.88 141.503 10C142.548 11.1764 143.109 12.7057 143.072 14.2794C143.035 15.8531 142.403 17.3542 141.303 18.48C140.223 19.6 138.623 20.42 136.523 20.94L141.883 27.9C142.752 29.1815 143.834 30.3044 145.083 31.22C146.156 31.8024 147.344 32.1436 148.563 32.22L148.923 32.26V33.66V33.64ZM169.443 8.48H168.063C167.063 8.48 166.383 8.74 165.943 9.28C165.803 9.46 165.543 10.08 165.543 11.98V28.72C165.543 30.28 165.663 30.92 165.763 31.18C165.863 31.42 166.083 31.62 166.423 31.8C166.943 32.08 167.483 32.2 168.063 32.2H169.443V33.66H156.923V32.22H158.283C159.283 32.22 159.983 31.96 160.423 31.42C160.563 31.22 160.823 30.62 160.823 28.72V11.98C160.823 10.42 160.703 9.78 160.583 9.54C160.45 9.25889 160.224 9.03265 159.943 8.9C159.403 8.62 158.863 8.5 158.283 8.5H156.923V7.04H169.423V8.48H169.443ZM210.423 8.1V8.48H209.043C208.003 8.48 207.303 8.76 206.883 9.32C206.743 9.52 206.523 10.12 206.523 11.92V34.08H205.223L205.103 33.94L187.563 13.86V28.78C187.563 30.76 187.843 31.34 188.003 31.52C188.443 31.98 189.143 32.22 190.083 32.22H191.463V33.66H181.123V32.22H182.463C183.523 32.22 184.223 31.94 184.643 31.38C184.783 31.18 185.023 30.58 185.023 28.78V11C184.283 10.2 183.723 9.64 183.383 9.4C182.983 9.14 182.423 8.88 181.663 8.66C181.119 8.53449 180.56 8.4807 180.003 8.5H179.603V7.06H187.643L187.763 7.2L203.983 25.8V11.92C203.983 9.94 203.683 9.34 203.503 9.16C203.103 8.7 202.383 8.48 201.423 8.48H200.083V7.04H210.423V8.1ZM244.703 33.64H233.023V32.22H233.383C234.643 32.16 235.163 31.94 235.383 31.78C235.663 31.58 235.803 31.3 235.803 31C235.803 30.5 235.543 29.66 235.023 28.52L233.503 25.02H223.363L221.603 28.84C221.063 30.04 220.943 30.64 220.943 30.94C220.943 31.24 221.083 31.48 221.383 31.7C221.623 31.88 222.223 32.1 223.743 32.2L224.123 32.24V33.64H214.723V32.26L215.043 32.22C216.443 31.98 216.903 31.7 217.063 31.56C217.703 30.98 218.463 29.76 219.263 27.92L229.063 6.68L229.183 6.48H230.523L230.623 6.68L239.963 28.2C240.703 29.86 241.363 30.96 241.963 31.42C242.503 31.9 243.303 32.14 244.343 32.22H244.703V33.64Z" fill="white"/>
<path id="Vector_4" d="M67.2434 9.98C66.4434 9.52 65.4834 9.3 64.4434 9.3C63.8634 9.3 63.1234 9.4 62.2434 9.6V19.8L63.7434 20C64.2834 20.06 64.7434 20.1 65.1034 20.1C65.7176 20.1085 66.3267 19.9883 66.8916 19.7472C67.4566 19.5061 67.9647 19.1494 68.3834 18.7C69.3034 17.72 69.7834 16.46 69.7834 14.94C69.7834 13.88 69.5634 12.88 69.1034 11.96C68.6992 11.1146 68.0423 10.4157 67.2234 9.96L67.2434 9.98ZM0.523438 0V40H42.9234V0H0.523438ZM41.3234 38.58H1.96344V1.4H41.3234V38.6V38.58Z" fill="white"/>
<path id="Vector_5" d="M3.5625 14.2799H15.6625V2.87988H3.5625V14.2799ZM27.7825 14.2799H39.9025V2.87988H27.7825V14.2799ZM15.6625 25.7199H27.7825V14.2799H15.6625V25.7199ZM3.5625 37.1399H15.6625V25.7199H3.5625V37.1399ZM27.7825 37.1399H39.9025V25.7199H27.7825V37.1399Z" fill="white"/>
</g>
</g>
</g>
</g>
<defs>
<clipPath id="clip0_282_1479">
<rect width="250" height="40" fill="white" transform="translate(0.523438)"/>
</clipPath>
</defs>
</svg>

<svg width="251" height="40" fill="none" xmlns="http://www.w3.org/2000/svg"><g clip-path="url(#a)"><mask id="b" style="mask-type:luminance" maskUnits="userSpaceOnUse" x="0" y="0" width="251" height="40"><path d="M.523 0h250v40h-250V0Z" fill="#fff"/></mask><g fill="#fff" mask="url(#b)"><path d="M224.385 22.82h8.14l-3.96-9.12-4.2 9.12h.02Zm-88.26-12.18c-.98-.94-2.3-1.4-3.94-1.4-.68 0-1.6.1-2.74.32V19.6h.72c2.48 0 4.38-.5 5.6-1.5 1.24-1 1.84-2.26 1.84-3.8s-.48-2.72-1.48-3.66Z"/><path d="M44.563 0v40h205.96V0H44.563Zm28.34 20a9.34 9.34 0 0 1-6.48 2.12 18.8 18.8 0 0 1-4.2-.48v7.08c0 2 .3 2.6.48 2.8.42.46 1.08.7 2 .7h1.42v1.44h-12.48v-1.44h1.42c1.02 0 1.72-.3 2.14-.9.14-.2.34-.78.34-2.6V11.98c0-2-.28-2.6-.44-2.8-.46-.46-1.12-.7-2.04-.7h-1.42V7.04h10.4a19.2 19.2 0 0 1 5.9.74 8.4 8.4 0 0 1 3.74 2.54c1 1.2 1.52 2.62 1.52 4.26 0 2.2-.76 4.04-2.3 5.44V20Zm39.3-11.68h-1.4c-.94 0-1.64.36-2.16 1.12-.12.2-.34.78-.34 2.56v10.46a17.817 17.817 0 0 1-.84 6.16c-.6 1.48-1.72 2.8-3.38 3.84-1.66 1.06-3.92 1.6-6.74 1.6a13.32 13.32 0 0 1-7.04-1.54 8.4 8.4 0 0 1-3.44-4.12c-.44-1.18-.66-3.3-.66-6.48V11.8c0-1.86-.32-2.6-.6-2.88-.38-.4-1-.62-1.9-.62h-1.4V6.86h12.48V8.3h-1.42c-1 0-1.66.28-2.06.84-.2.28-.42.96-.42 2.66v11.26c0 .98.1 2.12.3 3.4.18 1.22.52 2.2 1 2.86.48.68 1.16 1.22 2.08 1.66a9.9 9.9 0 0 0 8-.4c1.34-.68 2.28-1.58 2.76-2.64.48-1.1.74-3 .74-5.68V11.8c0-2-.28-2.6-.46-2.8-.44-.48-1.12-.7-2.02-.7h-1.4V6.86h10.32v1.46Zm36.72 25.32h-7.96l-.1-.14-9.2-11.96-1.44.04h-.56l-.2-.02v7.16c0 2 .28 2.6.44 2.78.44.48 1.08.7 2 .7h1.44v1.44h-12.48V32.2h1.4c1.02 0 1.72-.28 2.14-.9.14-.2.36-.76.36-2.6V11.98c0-2-.28-2.6-.46-2.78-.46-.48-1.1-.72-2.04-.72h-1.4V7.04h10.38c2.94 0 5.14.2 6.54.64 1.46.4 2.7 1.2 3.72 2.32a6.224 6.224 0 0 1-.2 8.48c-1.08 1.12-2.68 1.94-4.78 2.46l5.36 6.96a13.534 13.534 0 0 0 3.2 3.32 8.397 8.397 0 0 0 3.48 1l.36.04v1.4-.02Zm20.52-25.16h-1.38c-1 0-1.68.26-2.12.8-.14.18-.4.8-.4 2.7v16.74c0 1.56.12 2.2.22 2.46.1.24.32.44.66.62.52.28 1.06.4 1.64.4h1.38v1.46h-12.52v-1.44h1.36c1 0 1.7-.26 2.14-.8.14-.2.4-.8.4-2.7V11.98c0-1.56-.12-2.2-.24-2.44a1.342 1.342 0 0 0-.64-.64c-.54-.28-1.08-.4-1.66-.4h-1.36V7.04h12.5v1.44h.02Zm40.98-.38v.38h-1.38c-1.04 0-1.74.28-2.16.84-.14.2-.36.8-.36 2.6v22.16h-1.3l-.12-.14-17.54-20.08v14.92c0 1.98.28 2.56.44 2.74.44.46 1.14.7 2.08.7h1.38v1.44h-10.34v-1.44h1.34c1.06 0 1.76-.28 2.18-.84.14-.2.38-.8.38-2.6V11c-.74-.8-1.3-1.36-1.64-1.6-.4-.26-.96-.52-1.72-.74a6.404 6.404 0 0 0-1.66-.16h-.4V7.06h8.04l.12.14 16.22 18.6V11.92c0-1.98-.3-2.58-.48-2.76-.4-.46-1.12-.68-2.08-.68h-1.34V7.04h10.34V8.1Zm34.28 25.54h-11.68v-1.42h.36c1.26-.06 1.78-.28 2-.44.28-.2.42-.48.42-.78 0-.5-.26-1.34-.78-2.48l-1.52-3.5h-10.14l-1.76 3.82c-.54 1.2-.66 1.8-.66 2.1 0 .3.14.54.44.76.24.18.84.4 2.36.5l.38.04v1.4h-9.4v-1.38l.32-.04c1.4-.24 1.86-.52 2.02-.66.64-.58 1.4-1.8 2.2-3.64l9.8-21.24.12-.2h1.34l.1.2 9.34 21.52c.74 1.66 1.4 2.76 2 3.22.54.48 1.34.72 2.38.8h.36v1.42Z"/><path d="M67.243 9.98c-.8-.46-1.76-.68-2.8-.68-.58 0-1.32.1-2.2.3v10.2l1.5.2c.54.06 1 .1 1.36.1a4.4 4.4 0 0 0 3.28-1.4c.92-.98 1.4-2.24 1.4-3.76 0-1.06-.22-2.06-.68-2.98a4.52 4.52 0 0 0-1.88-2l.02.02ZM.523 0v40h42.4V0H.523Zm40.8 38.58H1.963V1.4h39.36v37.2-.02Z"/><path d="M3.563 14.28h12.1V2.88h-12.1v11.4Zm24.22 0h12.12V2.88h-12.12v11.4Zm-12.12 11.44h12.12V14.28h-12.12v11.44Zm-12.1 11.42h12.1V25.72h-12.1v11.42Zm24.22 0h12.12V25.72h-12.12v11.42Z"/></g></g><defs><clipPath id="a"><path fill="#fff" transform="translate(.523)" d="M0 0h250v40H0z"/></clipPath></defs></svg>
